view/frontend/web/svg/flags/np.svg

<svg width="24" height="24" viewbox="0 0 20 15" viewBox="0 0 20 15" fill="none" xmlns="http://www.w3.org/2000/svg">
<g clip-path="url(#clip0_270_60929)">
<rect width="20" height="15" fill="white"/>
<rect width="20" height="15" fill="white"/>
<path d="M7.11834 7.93838L12.6718 14.5H0.5V0.97791L12.001 7.11536H7.5H6.42178L7.11834 7.93838Z" fill="#C51918" stroke="#4857A1"/>
<mask id="mask0_270_60929" style="mask-type:luminance" maskUnits="userSpaceOnUse" x="0" y="0" width="14" height="15">
<path d="M7.11834 7.93838L12.6718 14.5H0.5V0.97791L12.001 7.11536H7.5H6.42178L7.11834 7.93838Z" fill="white" stroke="white"/>
</mask>
<g mask="url(#mask0_270_60929)">
<path fill-rule="evenodd" clip-rule="evenodd" d="M3.64352 12.5447L2.87779 13.5232L2.84244 12.2885L1.63881 12.6369L2.34735 11.6175L1.16557 11.2028L2.34735 10.7882L1.63881 9.76873L2.84244 10.1172L2.87779 8.88241L3.64352 9.86092L4.40925 8.88241L4.4446 10.1172L5.64822 9.76873L4.93969 10.7882L6.12147 11.2028L4.93969 11.6175L5.64822 12.6369L4.4446 12.2885L4.40925 13.5232L3.64352 12.5447Z" fill="#F7FCFF"/>
<path fill-rule="evenodd" clip-rule="evenodd" d="M3.62503 5.23925L3.22513 5.75027L3.20667 5.10541L2.57809 5.2874L2.94811 4.75501L2.33094 4.53845L2.94811 4.32189L2.57809 3.7895L3.20667 3.97149L3.22513 3.32662L3.62503 3.83765L4.02493 3.32662L4.04339 3.97149L4.67198 3.7895L4.30195 4.32189L4.91913 4.53845L4.30195 4.75501L4.67198 5.2874L4.04339 5.10541L4.02493 5.75027L3.62503 5.23925Z" fill="#F7FCFF"/>
<path fill-rule="evenodd" clip-rule="evenodd" d="M3.54066 5.08917C4.9107 5.09473 5.64116 4.30536 5.64116 4.30536C5.78567 5.20608 4.66996 5.80536 3.55401 5.80536C2.43806 5.80536 1.7624 4.98847 1.34615 4.30536C1.34615 4.30536 2.17062 5.08361 3.54066 5.08917Z" fill="#F9FAFA"/>
</g>
</g>
<defs>
<clipPath id="clip0_270_60929">
<rect width="20" height="15" fill="white"/>
</clipPath>
</defs>
</svg>

<svg width="24" height="24" viewbox="0 0 20 15" fill="none" xmlns="http://www.w3.org/2000/svg">
  <path fill="#fff" d="M0 0h20v15H0z"/>
  <path d="M7.118 7.938l5.554 6.562H.5V.978l11.501 6.137H6.422l.696.823z" fill="#C51918" stroke="#4857A1"/>
  <mask id="a" maskUnits="userSpaceOnUse" x="0" y="0" width="14" height="15">
    <path d="M7.118 7.938l5.554 6.562H.5V.978l11.501 6.137H6.422l.696.823z" fill="#fff" stroke="#fff"/>
  </mask>
  <g mask="url(#a)" fill-rule="evenodd" clip-rule="evenodd">
    <path d="M3.644 12.545l-.766.978-.036-1.234-1.203.348.708-1.02-1.181-.414 1.181-.415-.708-1.02 1.203.35.036-1.236.766.979.765-.979.036 1.235 1.203-.348-.708 1.02 1.181.414-1.181.415.708 1.019-1.203-.348-.036 1.234-.765-.978zM3.625 5.24l-.4.51-.018-.645-.629.182.37-.532-.617-.217.617-.216-.37-.533.629.182.018-.644.4.51.4-.51.018.644.629-.182-.37.533.617.216-.617.217.37.532-.629-.182-.018.645-.4-.51z" fill="#F7FCFF"/>
    <path d="M3.54 5.09c1.37.005 2.101-.785 2.101-.785.145.901-.971 1.5-2.087 1.5s-1.792-.817-2.208-1.5c0 0 .825.779 2.195.784z" fill="#F9FAFA"/>
  </g>
</svg>
